X: 41307
T: Tune For Michael
R: reel
M: 4/4
K: Amajor
E3 F A2 B/c/d|edcA dcAE|D2 FA AG E2|DEFD EAED|
E3 F A2 B/c/d|edcA dcAE|DFBd cA ~A2|BEcA F4:|
EABA dcec|EABA dcec|Fcde c2 FE|DFFE A2 G2|
EABA dcec|EABA dcec|FAAF EAAE|DBBc A2 G2|
EABe eddc|EABe efdc|Fcde c2 FE|DFFE A2 G2|
EABe cAED|EABe cAED|FAAF EAAE|DAAB c2 A2||

